SVG/RIght.svg

<svg height="46" viewBox="0 0 34 46" width="34" xmlns="http://www.w3.org/2000/svg" xmlns:xlink="http://www.w3.org/1999/xlink"><filter id="a" height="167.5%" width="198.2%" x="-49.1%" y="-33.8%"><feOffset dx="0" dy="1" in="SourceAlpha" result="shadowOffsetOuter1"/><feGaussianBlur in="shadowOffsetOuter1" result="shadowBlurOuter1" stdDeviation=".9"/><feColorMatrix in="shadowBlurOuter1" result="shadowMatrixOuter1" type="matrix" values="0 0 0 0 0   0 0 0 0 0   0 0 0 0 0  0 0 0 0.65 0"/><feMerge><feMergeNode in="shadowMatrixOuter1"/><feMergeNode in="SourceGraphic"/></feMerge></filter><g fill="none" filter="url(#a)" transform="translate(11 5)"><path d="m0 0v16h3.98v-6.01h1.06v3.47l5.96-5.47-5.96-5.46v3.47h-1.06v-6z" fill="#fff"/><path d="m3 14.98v-6h3.02v2.26l3.32-3.25-3.32-3.22v2.25h-3.02v-6h-1.98v13.96z" fill="#000"/></g></svg>

<svg width="24" height="24" viewBox="0 0 24 24" xmlns="http://www.w3.org/2000/svg"><defs><filter x="-29.1%" y="-13.8%" width="158.2%" height="140%" filterUnits="objectBoundingBox" id="a"><feOffset dy="1" in="SourceAlpha" result="shadowOffsetOuter1"/><feGaussianBlur stdDeviation=".9" in="shadowOffsetOuter1" result="shadowBlurOuter1"/><feColorMatrix values="0 0 0 0 0 0 0 0 0 0 0 0 0 0 0 0 0 0 0.65 0" in="shadowBlurOuter1" result="shadowMatrixOuter1"/><feMerge><feMergeNode in="shadowMatrixOuter1"/><feMergeNode in="SourceGraphic"/></feMerge></filter></defs><g filter="url(#a)" transform="translate(10 4)" fill="none"><path fill="#FFF" d="M0 0v16h3.98V9.99h1.06v3.47L11 7.99 5.04 2.53V6H3.98V0z"/><path fill="#000" d="M3 14.98v-6h3.02v2.26l3.32-3.25-3.32-3.22v2.25H3v-6H1.02v13.96z"/></g></svg>
